src/helpers/heroicons/solid/arrow-long-down.svg

<svg width="24" height="24" viewBox="0 0 24 24" fill="none" xmlns="http://www.w3.org/2000/svg">
<path fill-rule="evenodd" clip-rule="evenodd" d="M12 2.25C12.4142 2.25 12.75 2.58579 12.75 3L12.75 19.1893L15.2197 16.7197C15.5126 16.4268 15.9874 16.4268 16.2803 16.7197C16.5732 17.0126 16.5732 17.4874 16.2803 17.7803L12.5303 21.5303C12.2374 21.8232 11.7626 21.8232 11.4697 21.5303L7.71967 17.7803C7.42678 17.4874 7.42678 17.0126 7.71967 16.7197C8.01256 16.4268 8.48744 16.4268 8.78033 16.7197L11.25 19.1893L11.25 3C11.25 2.58579 11.5858 2.25 12 2.25Z" />
</svg>

<svg xmlns="http://www.w3.org/2000/svg" viewBox="0 0 24 24" fill="currentColor" aria-hidden="true" data-slot="icon">
  <path fill-rule="evenodd" d="M12 2.25a.75.75 0 0 1 .75.75v16.19l2.47-2.47a.75.75 0 1 1 1.06 1.06l-3.75 3.75a.75.75 0 0 1-1.06 0l-3.75-3.75a.75.75 0 1 1 1.06-1.06l2.47 2.47V3a.75.75 0 0 1 .75-.75Z" clip-rule="evenodd"/>
</svg>
